X:1
T:Fugue Fragment
T:Fugue Fragment
T:Wolfgang Amadeus Mozart (1756-1791) Anh. 41 (375g) 
T:by Mutopia-2015/01/17-447 - public domain
C:Wolfgang Amadeus Mozart (1756-1791) Anh. 41 (375g)
Z:by Mutopia-2015/01/17-447 - public domain
%%score { ( 1 3 ) | ( 2 4 ) }
L:1/8
Q:1/4=110
M:4/4
K:G
V:1 treble nm="Piano" snm="Pno."
V:3 treble 
V:2 bass 
V:4 bass 
V:1
 z2 e2 d2 c2 | B2 c2 Td3 c/B/ | A2 B2 TE3 F/G/ | A2 DE FGAB | G2 d3 ^cgc | Ta3 g/f/ e2 f2 | %6
 g2 fe d^cBA | TG3 F/G/ E2 ^c2 | d^GAB =c4- | cB e3 d g2- | gfg^c d4 | z2 e2 f2 g2 | %12
 a2 ^d2 g2 ^c2 | e2 FG AB^cd | B4- B^cdB | A2 z2 d2 b2 | e4- eg^ce | d2 z2 z2 a2 | g2 ^c2 d2 d2 | %19
 B2 E2 z4 | z8 | z8 | z2 e2 d2 c2 | B2 c2 Td3 c/B/ | A2 B2 E3 F/G/ | A2 DE FGAB | G2 x2 x4 | %27
V:2
 z8 | z8 | z8 | z8 | z8 | z8 | z8 | z8 | z8 | z8 | z2 E2 D2 C2 | B,2 C2 TD3 C/B,/ | %12
 A,2 B,2 TE,3 F,/G,/ | TA,2 D,E, F,G,A,B, | G,4- G,^A,B,^C | D3 ^C F3 E | A2 D3 ^CGC | %17
 TA3 G/F/ E2 F2 | G2 FE D^C B,A, | T=G,3 F,/G,/ E,2 ^C2 | D^G,A,B, =C4- | CB, E3 D G2- | GFG^C D4 | %23
 DG,G,G, G,G,B,C | D2 F,2 ^G,3 A,/B,/ | CA,F,=G, A,G, F,2 | G,2 x2 x4 | %27
V:3
 x8 | x8 | x8 | x8 | z2 B2 A2 G2 | F2 G2 TA3 G/F/ | E2 F2 TB,3 ^C/D/ | E2 A,B, ^CDEF | D4- D^DEF | %9
 G3 F B3 A | d2 G3 F!courtesy!=cF | Td3 c/B/ A2 B2 | c2 BA GF ED | !courtesy!^C3 B,/C/ A,2 F2 | %14
 G^CDF G4- | GF B3 A d2- | d^cd^G A4 | z2 B2 ^c2 d2 | e2 ^A2 B2 ^G2 | =G2 ^CD EFGA | F4- FAG^D | %21
 EG z A GB z ^c | d2 z2 Ac FA | G2 A2 TB3 A/G/ | F2 z2 z4 | z2 D4 D2 | D2 x6 | %27
V:4
 x8 | x8 | x8 | x8 | x8 | x8 | x8 | x8 | x8 | x8 | x8 | x8 | x8 | x8 | x8 | x8 | z2 B,2 A,2 G,2 | %17
 F,2 G,2 TA,3 G,/F,/ | E,2 F,2 TB,,3 ^C,/D,/ | E,2 A,,B,, ^C,D,E,F, | D,4- D,^D,E,F, | %21
 G,3 F, B,3 A, | D2 G,,3 F,,C,F,, | G,,2 z2 z4 | z D,D,D, D,D,C,B,, | A,,2 C,2 D,,2 C,2 | B,,2 x6 | %27

